openframe-frontend-core/src/components/icons-v2/brand-logos/twitter-square.svg

<svg width="24" height="24" viewBox="0 0 24 24" fill="none" xmlns="http://www.w3.org/2000/svg">
<path d="M19.875 6C19.875 4.96447 19.0355 4.125 18 4.125H6C4.96447 4.125 4.125 4.96447 4.125 6V18C4.125 19.0355 4.96447 19.875 6 19.875H18C19.0355 19.875 19.875 19.0355 19.875 18V6ZM22.125 18C22.125 20.2782 20.2782 22.125 18 22.125H6C3.72183 22.125 1.875 20.2782 1.875 18V6C1.875 3.72183 3.72183 1.875 6 1.875H18C20.2782 1.875 22.125 3.72183 22.125 6V18Z" fill="#888888"/>
<path d="M14.3638 6.88379C14.9339 6.92513 15.4591 7.11814 15.9253 7.36865H16.7456C17.3222 7.36865 17.7394 7.71624 17.9424 8.07764C18.118 8.39089 18.1894 8.80553 18.0552 9.21143L17.9849 9.38428L17.5132 10.354C17.4384 13.1759 16.1952 15.3938 14.1821 16.6162C12.1258 17.8647 9.45502 17.963 6.82422 16.8755C6.35394 16.6811 6.073 16.195 6.13867 15.6904C6.20447 15.1857 6.60099 14.788 7.10547 14.7207C7.31068 14.6933 7.49192 14.6598 7.65332 14.624C6.26157 12.8311 5.87507 10.8174 5.875 8.84082C5.875 7.7724 7.08837 7.05009 8.00928 7.67773L8.18799 7.82129L8.64502 8.2168C9.41753 8.84375 10.1821 9.22777 11.0547 9.39014C11.0841 9.24788 11.1211 9.10624 11.1689 8.9668C11.3691 8.38365 11.7252 7.89989 12.2603 7.50635L12.5093 7.33936C13.0969 6.97972 13.7297 6.83791 14.3638 6.88379ZM14.2012 9.12793C14.0126 9.11429 13.8195 9.15341 13.5933 9.31982C13.4111 9.45396 13.3422 9.56697 13.2974 9.69775C13.2378 9.87171 13.2036 10.1337 13.2036 10.606C13.2036 11.2272 12.6998 11.7308 12.0786 11.731C10.626 11.731 9.40338 11.369 8.29346 10.71C8.54689 11.9684 9.12265 13.1056 10.252 14.1187C10.4867 14.3293 10.6222 14.6295 10.6255 14.9448C10.627 15.0935 10.5975 15.2389 10.5435 15.374C11.4853 15.3549 12.3261 15.1123 13.0146 14.6943C14.3251 13.8986 15.2705 12.365 15.2705 10.083C15.2706 9.91292 15.309 9.74529 15.3833 9.59229L15.3848 9.58789C15.2629 9.56021 15.1447 9.51547 15.0376 9.44873C14.6965 9.23618 14.4174 9.14363 14.2012 9.12793Z" fill="#888888"/>
</svg>

<svg xmlns="http://www.w3.org/2000/svg" width="24" height="24" fill="none" viewBox="0 0 24 24">
  <path fill="#888" d="M19.875 6c0-1.036-.84-1.875-1.875-1.875H6c-1.036 0-1.875.84-1.875 1.875v12c0 1.035.84 1.875 1.875 1.875h12c1.035 0 1.875-.84 1.875-1.875V6Zm2.25 12A4.125 4.125 0 0 1 18 22.125H6A4.125 4.125 0 0 1 1.875 18V6A4.125 4.125 0 0 1 6 1.875h12A4.125 4.125 0 0 1 22.125 6v12Z"/>
  <path fill="#888" d="M14.364 6.884c.57.041 1.095.234 1.561.485h.82c.577 0 .994.347 1.197.709.176.313.247.728.113 1.133l-.07.173-.472.97c-.075 2.822-1.318 5.04-3.33 6.262-2.057 1.249-4.728 1.347-7.359.26a1.125 1.125 0 0 1 .281-2.155c.206-.028.387-.061.548-.097-1.391-1.793-1.778-3.807-1.778-5.783 0-1.069 1.213-1.79 2.134-1.163l.179.143.457.396c.773.627 1.537 1.01 2.41 1.173.03-.142.066-.284.114-.423.2-.583.556-1.067 1.091-1.46l.25-.168a3.077 3.077 0 0 1 1.854-.455ZM14.2 9.128c-.188-.014-.382.025-.608.192-.182.134-.25.247-.296.378-.06.174-.093.436-.093.908 0 .621-.504 1.125-1.125 1.125-1.453 0-2.676-.362-3.786-1.021.254 1.258.83 2.396 1.959 3.409a1.126 1.126 0 0 1 .291 1.255c.942-.02 1.783-.262 2.472-.68 1.31-.795 2.255-2.329 2.255-4.611 0-.17.039-.338.113-.49l.002-.005a1.125 1.125 0 0 1-.347-.14c-.341-.212-.62-.304-.837-.32Z"/>
</svg>
